src/components/Icon/assets/person-add.svg

<svg width="24" height="24" viewBox="0 0 24 24" fill="none" xmlns="http://www.w3.org/2000/svg">
<path fill-rule="evenodd" clip-rule="evenodd" d="M17.9984 6.00012V3.00012H19.9984V6.00012H22.9984V8.00012H19.9984V11.0001H17.9984V8.00012H14.9984V6.00012H17.9984ZM14.614 8.59982C14.614 10.5878 13.002 12.1998 11.014 12.1998C9.02596 12.1998 7.41396 10.5878 7.41396 8.59982C7.41396 6.61182 9.02596 4.99982 11.014 4.99982C13.002 4.99982 14.614 6.61182 14.614 8.59982ZM3.03095 20.4761C3.30095 16.3021 6.77195 13.0001 11.014 13.0001C15.256 13.0001 18.727 16.3021 18.997 20.4761C19.015 20.7601 18.776 21.0001 18.491 21.0001H3.53695C3.25195 21.0001 3.01295 20.7601 3.03095 20.4761Z" fill="#65676A"/>
</svg>

<svg xmlns="http://www.w3.org/2000/svg" width="24" height="24" viewBox="0 0 24 24">
    <path fill="#65676A" fill-rule="evenodd" d="M11.014 13c4.242 0 7.713 3.302 7.983 7.476.018.284-.221.524-.506.524H3.537c-.285 0-.524-.24-.506-.524C3.301 16.302 6.772 13 11.014 13zm0-8c1.988 0 3.6 1.612 3.6 3.6s-1.612 3.6-3.6 3.6-3.6-1.612-3.6-3.6S9.026 5 11.014 5zm8.984-2v3h3v2h-3v3h-2V8h-3V6h3V3h2z"/>
</svg>
